!!!!SEGMENT: pl-lzu--m-15111--001-030_noskowski-zygmunt--spiewnik-dla-dzieci-op-34-30-poranek.krn
!!!cenid: 18xx:4727
!!!COM: Noskowski, Zygmunt
!!!COM-rismID: pe106604
!!!CDT: 1846/05/02-1909/07/23
!!!CNT: Polish
!!!GTL: Śpiewnik dla dzieci, op. 34
!!!OTL: 30. Poranek
!!!OMV: 030
!!!PDT: 1890
!!!AGN: Secular; Song; Children
!!!YEC: Copyright 2022 Narodowy Instytut Fryderyka Chopina (https://polishscores.org)
!!!YEM: License CC-BY-4.0 (https://creativecommons.org/licenses/by/4.0)
!!!SMS-siglum: PL-LŹu
!!!SMS-shelfmark: M 15111
!!!SMS-variant:
!!!SMS-altvar:
!!!SMS-shelfwork: 001-030 G
!!!NIFC-rismSourceID: 1001234040
!!!NIFC-rismChildID: 1001234040
!!!NIFC-islandoraID: pl-lzu:5455
!!!URL-pdf-islandora: https://repozytorium.nifc.pl/islandora/object/pl-lzu%3A5455/datastream/PDF/view
!!!URL-scan: https://polish.musicsources.pl/pl/lokalizacje/galeria/druki-muzyczne/23228/38 @EN{Scan on Polish Music Sources Website} @PL{Skany w portalu Dziedzictwo Muzyki Polskiej w otwartym dostępie}
!!!IIIF:
!!!ONB-nifc:
!!!AIN: 1 piano
!!!key: E-
!!!OMD: Moderato.
**kern	**kern	**dynam	**kern	**text	**text	**dynam
*part2	*part2	*part2	*part1	*part1	*part1	*part1
*staff3	*staff2	*staff2/3	*staff1	*staff1	*staff1	*staff1
*I"[Piano]	*I"[Piano]	*	*I"[Voice]	*	*	*
*I'pf	*I'pf	*	*	*	*	*
*Ipiano	*Ipiano	*	*	*	*	*
*ICklav	*ICklav	*	*	*	*	*
*IGacmp	*IGacmp	*	*	*	*	*
*>[A,A]	*>[A,A]	*>[A,A]	*>[A,A]	*>[A,A]	*>[A,A]	*>[A,A]
*>A	*>A	*>A	*>A	*>A	*>A	*>A
*clefF4	*clefG2	*	*clefG2	*	*	*
*k[b-e-a-]	*k[b-e-a-]	*	*k[b-e-a-]	*	*	*
*E-:	*E-:	*	*E-:	*	*	*
*M3/4	*M3/4	*	*M3/4	*	*	*
=	=	=	=	=	=	=
*	*^	*	*	*	*	*
!	!LO:TX:a:i:t=Umiarkowanie.	!	!LO:DY:rj	!	!	!	!
4G 4E-\	(8e-/L	4Bn\	f >	4r	.	.	.
.	8d/J	.	.	.	.	.	.
=1	=1	=1	=1	=1	=1	=1	=1
2A- 2AA-\	2c/)	2ryy	.	2.r	.	.	.
.	.	.	]	.	.	.	.
!	!	!	!LO:DY:rj	!	!	!	!
4F 4BB-\	(8d/L	4A-\	p	.	.	.	.
.	8g/J	.	.	.	.	.	.
*	*v	*v	*	*	*	*	*
=2	=2	=2	=2	=2	=2	=2
*	*	*	*	*v:1	*v:2	*
2E- 2EE-/	2e- 2G/)	.	4r	.	.	.
.	.	.	4r	.	.	.
4r	4e-/	.	4e-/	Mi-	Mi-	p
=3	=3	=3	=3	=3	=3	=3
*	*^	*	*	*	*	*
2E- 2EE-/	4g 4e- 4B-/	2ryy	.	8g/	-nę-	-nę-	.
.	.	.	.	8g/	-ła	-ła	<
.	4a- 4e- 4c/	.	.	4a-/	noc-	noc-	.
4A- 4E-\	(8g/L	4d\	.	(8g/L	-ka,	-ka,	.
.	8f/J	.	.	8f/J)	.	.	.
*	*v	*v	*	*	*	*	*
=4	=4	=4	=4	=4	=4	=4
4B- 4E-\	8gL 8e-/	.	8g/	mi-	mi-	[
.	8e-/J)	.	8e-/	-nął	-nął	.
4G 4E-\	4b- 4e-/	.	4b-\	cień,	cień,	.
4r	8r	.	8r	.	.	.
.	8b-\	.	8b-\	Sło-	Niech	.
!!LO:PB:g=original
=5	=5	=5	=5	=5	=5	=5
*	*	*	*	*v:1	*v:2	*
2A- 2AA-/	4cc 4a- 4e-/	mf	8cc\	-necz-	się	mf
.	.	.	8cc\	-ko	wy-	.
.	4a- 4e- 4c/	.	4a-/	mo-	-le-	.
4r	(8b-\L	.	(8b-\L	-je,	-ga	.
.	8cc\J	.	8cc\J)	.	.	.
=6	=6	=6	=6	=6	=6	=6
8C/L	8ee-L 8a- 8e-/	>	8ee-\	do-	w łóż-	>
8D/J	8ccJ 8a- 8f/)	.	8cc\	-bry	-ku	.
4E-\	4b- 4g/	]	4b-\	dzień!	leń,	]
4r	8r	.	8r	.	.	.
.	8g/	.	8g/	Sło-	A	.
=7	=7	=7	=7	=7	=7	=7
8A-L 8BB-\	(>8fL 8d/	<	8f/	-necz-	ja	<
8F\J	8a-/J	.	8a-/	-ko	ra-	.
4A- 4BB-\	4cc 4d/	[	4cc\	mo-	-niu-	[
4r	8b-/L	.	8b-/	-je	-chno	.
.	8a-/J)	.	8a-/	ko-	dziś	.
!!LO:LB:g=original
=8	=8	=8	=8	=8	=8	=8
*	*	*	*	*v:1	*v:2	*
*^	*	*	*	*	*	*
(4A-/	2E-\	(4cc 4d/	.	4cc\	-cha-	wsta-	.
4G/)	.	4b- 4e-/)	.	4b-\	-ne	-nę,	.
4r	4ryy	8r	.	8r	.	.	.
!	!	!	!LO:DY:rj	!	!	!	!LO:DY:rj
.	.	8e-/	p	8e-/	W po-	Zo-	p
*v	*v	*	*	*	*	*	*
=9	=9	=9	=9	=9	=9	=9
4r	(8d/L	.	8d/	-ran-	-ba-	.
.	8f/J	.	8f/	-nych	-czę	.
2BB-/	4a- 4d 4c/)	.	4a-/	zo-	słon-	.
.	(8.gL 8.d 8.B-/	.	8.g/	-rzach	-ko	.
.	16fJk 16d 16A-/)	.	16f/	ru-	ko-	.
=10	=10	=10	=10	=10	=10	=10
4EE-/	4g 4e- 4G/	.	4g/	-mia-	-cha-	.
4E-;\	4e- 4B- 4G;/	.	4e-;/	-ne!	-ne.	.
=:|!	=:|!	=:|!	=:|!	=:|!	=:|!	=:|!
*-	*-	*-	*-	*-	*-	*-
!!!system-decoration: p1{p2}
!!!RDF**kern: > = above
!!!RDF**kern: < = below
!!!ENC: Andrzej Gręziak
!!!END: 2025-03-06
!!!ENC: Marta Lawrence
!!!END: 2025-03-22
